!!!COM: Palestrina, Giovanni Perluigi da
!!!OPR: Gia fu chi m'ebbe cara
!!!OTL: Benedictus
**kern	**kern	**kern
*Ibass	*Itenor	*Icalto
!Bassus	!Tenor	!Altus
*clefF4	*clefGv2	*clefG2
*k[]	*k[]	*k[]
*D:dor	*D:dor	*D:dor
*M4/2	*M4/2	*M4/2
=1	=1	=1
0r	1e	0r
.	1c	.
=2	=2	=2
0r	1B	0r
.	2.A	.
.	4B	.
=3	=3	=3
1A	4c	0r
.	4d	.
.	2e	.
1F	2A	.
.	[2a	.
=4	=4	=4
1E	2a]	0r
.	2g#	.
2.D	2.a	.
4E	4g	.
=5	=5	=5
4F	2f	1a
4G	.	.
2A	2e	.
2D	1d	1f
[2d	.	.
=6	=6	=6
2d]	2r	1e
2c#	2e	.
2.d	2.f	2.d
4c	4e	4e
=7	=7	=7
2B-	2d	4f
.	.	4g
2A	2c	2a
1G	1B-	2d
.	.	[2dd
=8	=8	=8
2r	1A	2dd]
2A	.	2cc#
2.B-	[1d	2.dd
4A	.	4cc
=9	=9	=9
2G	1d]	2b-
2F	.	2a
1E	1e	1g
=10	=10	=10
1D	1f#	2r
.	.	2a
[1G	2g	2.b-
.	4G	.
.	4A	4a
=11	=11	=11
1G]	4B-	2g
.	4c	.
.	1d	2f
1A	.	1e
.	2c#	.
=12	=12	=12
1B-	2d	1d
.	2d	.
2c	2e	[1g
4C	2c	.
4D	.	.
=13	=13	=13
4E	1B	1g]
4F	.	.
1G	.	.
.	2A	1a
2F#	2A	.
=14	=14	=14
2G	2G	1b
2G	2B	.
2A	1A	2cc
2F	.	4c
.	.	4d
=15	=15	=15
1E	1G	4e
.	.	4f
.	.	1g
2D	1A	.
2D	.	2f
=16	=16	=16
2C	2r	2g
2E	2e	2g
1D	2f	2a
.	2d	2f
=17	=17	=17
1C	2e	1e
.	1g	.
1D	.	2d
.	2f	2d
=18	=18	=18
2r	1e	2c
2A	.	2e
2B	1r	1d
2G	.	.
=19	=19	=19
2A	1r	1c
1c	.	.
.	2r	1d
2B	2d	.
=20	=20	=20
1A	2e	2r
.	2c	2a
1r	2d	2b
.	4e	2g
.	8d	.
.	8e	.
=21	=21	=21
1r	2.f	2a
.	.	1cc
.	4e	.
2r	2d	.
2G	2d	2b
=22	=22	=22
2A	2c	1a
2F	1f	.
2G	.	1r
4A	2e	.
8G	.	.
8A	.	.
=23	=23	=23
2.B-	2.d	1r
4A	4c	.
2G	2B-	2r
2G	2B-	2g
=24	=24	=24
2F	2A	2a
1B-	4d	2f
.	4c	.
.	4d	2g
.	4e	.
2A	2f	4f
.	.	8g
.	.	8a
=25	=25	=25
2.G	4e	2.b-
.	4d	.
.	1d	.
4F	.	4a
2E	.	2g
2E	2c#	2g
=26	=26	=26
0D	0d	0f#
*-	*-	*-
!! Hosanna
**kern	**kern	**kern	**kern
*Ibass	*Itenor	*Icalto	*Icant
!Bassus	!Tenor	!Altus	!Cantus
*clefF4	*clefGv2	*clefG2	*clefG2
*k[]	*k[]	*k[]	*k[]
*D:dor	*D:dor	*D:dor	*D:dor
*M4/2	*M4/2	*M4/2	*M4/2
=27	=27	=27	=27
1D	1d	1f#	1a
1D	1d	2f#	2a
.	.	2f#	2a
=28	=28	=28	=28
2G	1d	4g	4b
.	.	4a	4cc
2G	.	4b	4dd
.	.	4a	4cc
2G	1r	4g	4b
.	.	4f	4a
2G	.	4e	4g
.	.	4d	4f
=29	=29	=29	=29
4A	2r	2.c	2e
4B	.	.	.
4c	2c	.	2e
4B	.	4d	.
4A	2c	2e	2.a
4G	.	.	.
4F	2c	2A	.
4E	.	.	4g
=30	=30	=30	=30
1D	4d	2.a	2f
.	4e	.	.
.	4f	.	2d
.	4e	4g	.
1D	4d	1f	[1dd
.	4c	.	.
.	4B	.	.
.	4A	.	.
=31	=31	=31	=31
1E	2G	1e	2dd]
.	1A	.	2cc
1E	.	2r	1b
.	2G#	2e	.
=32	=32	=32	=32
2r	2A	1e	2cc#
2A	2e	.	2cc#
1A	2e	1a	2cc#
.	2e	.	2cc#
=33	=33	=33	=33
1d	4f	2r	4dd
.	4g	.	4ee
.	4a	2f	4ff
.	4g	.	4ee
1D	4f	2f	4dd
.	4e	.	4cc
.	4d	2f	4b-
.	4c	.	4a
=34	=34	=34	=34
0G	1d	4g	2b-
.	.	4a	.
.	.	4b-	2g
.	.	4a	.
.	2.g	4g	1b-
.	.	4f	.
.	.	4e	.
.	4f	4d	.
=35	=35	=35	=35
0A	2e	2c#	[0a
.	1d	2d	.
.	.	1e	.
.	2c#	.	.
=36	=36	=36	=36
0D	0d	0f#	0a]
==	==	==	==
*-	*-	*-	*-
!!!CDT: 1525/^1526/-1594/2/2
!!!OCY: Italia
!!!AGN: Mass (Parody)
!!!AST: renaissance, vocal
!!!ASW: Madrigal 1555 (Palestrina)
!!!PWK: Masses, Book 10
!!!RNB: Cadence finals: A
!!!YOR: Le Opere Complete, v. 27, p. 30
!!!YOO: Rome, Italy: Fratelli Scalera
!!!END: 1992//
!!!EED: John Miller
!!!YEC: Copyright 2000, John Miller
!!!YEN: United States of America
!!!YEM: Rights to all derivative electronic formats reserved.
!!!YEM: Refer to licensing agreement for further details.
!!!YEM: This file must be accompanied by the licensing agreement.
!!!YEM: A copy of the licensing agreement may be found at http://www.music-cog.ohio-state.edu/HumdrumDatabases/Palestrina/license.txt
!!!EMD: converted to Humdrum by Bret Aarden
